X: 34331
T: Return Of The Eagle, The
R: reel
M: 4/4
K: Bminor
FBBB BcdB cBAf edce|cdBA BcdB cBAf ecBA|
FBBB BcdB cBAf edce|cdBA BcdB cBAf ABBA:|
dcB3cde cABA EFAc|dcBc defb afec ABBA|
dcB3cde cABA EFAc|dcBc defb afec ABB:|B4

